!!!!SEGMENT: Jan2007-O_Domine_Jesu_Christe.krn
!!!id: Jan2007
!!!AGN: Motet
!!!SCT: Sherr (1990)
!!!voices: 4
!!!COM: Maistre Jan
!!!OTL: O Domine Jesu Christe
**kern	**kern	**kern	**kern
*part4	*part3	*part2	*part1
*staff4	*staff3	*staff2	*staff1
*I"Bassus	*I"Tenor	*I"Altus	*I"Superius
*I'B	*I'T	*I'A	*I'S
*clefF4	*clefGv2	*clefG2	*clefG2
*k[b-]	*k[b-]	*k[b-]	*k[b-]
*F:	*F:	*F:	*F:
*M2/1	*M2/1	*M2/1	*M2/1
*met(C|)	*met(C|)	*met(C|)	*met(C|)
!!section: Pars I: O Domine Jesu Christe
!!!OMD: Pars I: O Domine Jesu Christe
=1	=1	=1	=1
0r	0r	[0A	0r
=2	=2	=2	=2
0r	0r	0A]	0r
=3	=3	=3	=3
0r	0r	1c	[0a
.	.	1c	.
=4	=4	=4	=4
0r	0r	2.d	0a]
.	.	4c	.
.	.	4d	.
.	.	4e	.
.	.	[2f	.
=5	=5	=5	=5
0r	[0A	2f]	1cc
.	.	4e	.
.	.	4d	.
.	.	1e	1cc
=6	=6	=6	=6
[0D	0A]	[0f	0dd
=7	=7	=7	=7
0D]	1d	0f]	1.a
.	1d	.	.
.	.	.	2b-y
=8	=8	=8	=8
1A	2.e	0r	1cc
.	4d	.	.
1A	2e	.	1a
.	[2f	.	.
=9	=9	=9	=9
0B-y	4f]	1.f	0dd
.	4e	.	.
.	4d	.	.
.	4c	.	.
.	1d	.	.
.	.	2g	.
=10	=10	=10	=10
1.A	0r	1a	1.cc
.	.	1f	.
2B-y	.	.	2b-y
=11	=11	=11	=11
1c	1.e	2r	2a
.	.	1g	2g
1A	.	.	1cc
.	2f	2c	.
=12	=12	=12	=12
1G	1g	2e	1b-y
.	.	1d	.
1A	1e	.	1a
.	.	2c#i	.
=13	=13	=13	=13
0D	1f	1d	1r
.	2d	1r	1dd
.	[2f	.	.
=14	=14	=14	=14
0r	2f]	1d	1.ff
.	4e	.	.
.	4d	.	.
.	2.c	[1g	.
.	.	.	2ee
.	4B-y	.	.
=15	=15	=15	=15
0r	0G	1g]	1.dd
.	.	1g	.
.	.	.	4cc
.	.	.	4b-y
=16	=16	=16	=16
1A	0r	1.e	2a
.	.	.	1cc
[1c	.	.	.
.	.	4d	4b-y
.	.	4c	4a
=17	=17	=17	=17
2c]	1G	1d	1g
2B-y	.	.	.
2.A	[1c	1e	[1a
4G	.	.	.
=18	=18	=18	=18
4F	1c]	1f	1a]
4E	.	.	.
2D	.	.	.
1C	1c	2g	1cc
.	.	[2a	.
=19	=19	=19	=19
0r	0A	4a]	0cc
.	.	4g	.
.	.	1g	.
.	.	2f#i	.
=20	=20	=20	=20
1G	1r	0g	2b-y
.	.	.	2g
1G	1d	.	1b-y
=21	=21	=21	=21
2F	1d	0r	[0a
2D	.	.	.
2.F	2c	.	.
.	2A	.	.
4G	.	.	.
=22	=22	=22	=22
2A	1c	0r	1a]
2F	.	.	.
1G	[1B-y	.	[1g
=23	=23	=23	=23
0D	2B-]	1d	2g]
.	4A	.	4f#i
.	4G	.	4e
.	1A	[1d	1f#i
=24	=24	=24	=24
0G	2.B-y	1d]	1g
.	4c	.	.
.	1d	2B-y	1r
.	.	2G	.
=25	=25	=25	=25
1C	1e	1.c	1g
1G	1d	.	1g
.	.	2B-y	.
=26	=26	=26	=26
0r	1r	0A	1.cc
.	1c	.	.
.	.	.	2cc
=27	=27	=27	=27
0r	1c	0r	1ee
.	[1f	.	2dd
.	.	.	[2cc
=28	=28	=28	=28
0r	2f]	0r	4cc]
.	.	.	4b-y
.	2f	.	4a
.	.	.	4g
.	1a	.	2f
.	.	.	2a
=29	=29	=29	=29
0r	2g	1r	2b-y
.	1f	.	2.cc
.	.	1A	.
.	.	.	4a
.	4e	.	[2dd
.	4d	.	.
=30	=30	=30	=30
1r	1e	1A	2dd]
.	.	.	2cc#i
[1D	[1f	[1d	[1dd
=31	=31	=31	=31
1D]	1f]	2d]	2dd]
.	.	2d	4cc
.	.	.	4b-y
1D	1d	1f	1a
=32	=32	=32	=32
1.G	1.B-y	2e	2r
.	.	2.d	2g
.	.	.	[1b-y
.	.	4c	.
2G	4A	4B-y	.
.	4G	4A	.
=33	=33	=33	=33
1.B-y	1d	2.G	2b-]
.	.	.	2b-y
.	.	4A	.
.	1r	2B-y	1f
2A	.	[2c	.
=34	=34	=34	=34
1G	1d	2c]	1g
.	.	2Bni	.
[1F	[1f	[1c	[1a
=35	=35	=35	=35
0F]	2f]	1c]	1a]
.	2f	.	.
.	1c	1r	[1f
=36	=36	=36	=36
1D	1d	1A	1f]
[1C	[1e	[1c	[1g
=37	=37	=37	=37
1C]	1e]	2c]	2g]
.	.	2c	2a
1r	2d	2G	2b-y
.	[2f	2A	2cc
=38	=38	=38	=38
0r	2f]	1B-y	1dd
.	4e	.	.
.	4d	.	.
.	2f	1A	[1cc
.	2e	.	.
=39	=39	=39	=39
1A	1.a	1r	0cc_
[1c	.	1e	.
.	4g	.	.
.	4f	.	.
=40	=40	=40	=40
2c]	1e	1.g	1cc]
2c	.	.	.
2G	2d	.	1r
2G	2e	2g	.
=41	=41	=41	=41
0B-y	2f	1d	1.dd
.	2.g	.	.
.	.	1d	.
.	4f	.	.
.	2g	.	2dd
=42	=42	=42	=42
0A	2.a	2f	1cc
.	.	2e	.
.	4g	.	.
.	2f	1c	[1a
.	2e	.	.
=43	=43	=43	=43
1r	2.f	1d	0a]
.	4e	.	.
[1A	[1c	1e	.
=44	=44	=44	=44
2A]	1c]	1r	1r
2A	.	.	.
1G	1r	[1d	1g
=45	=45	=45	=45
1D	1r	2d]	1a
.	.	2d	.
1r	[1a	1c	[1cc
=46	=46	=46	=46
1r	2a]	1A	2cc]
.	2a	.	4b-y
.	.	.	4a
1G	1g	1d	1b-y
=47	=47	=47	=47
2A	0e	1c	2a
1c	.	.	2g
.	.	1A	1cc
4B-y	.	.	.
4A	.	.	.
=48	=48	=48	=48
1B-y	1d	0r	1f
2A	2e	.	1r
2G	[2g	.	.
=49	=49	=49	=49
0d	2g]	0r	1.a
.	4f	.	.
.	4e	.	.
.	1f	.	.
.	.	.	2b-y
=50	=50	=50	=50
1c	1e	1.g	1cc
2.G	[1d	.	2.dd
.	.	2g	.
4A	.	.	4cc
=51	=51	=51	=51
2B-y	2d]	1f	2b-y
2F	2c	.	1a
1G	1B-y	[1d	.
.	.	.	2g
=52	=52	=52	=52
1D	0A	1d]	0a
[1F	.	1r	.
=53	=53	=53	=53
2F]	1A	1c	0r
2E	.	.	.
[1D	[1A	2d	.
.	.	[2f	.
=54	=54	=54	=54
1D]	2A]	2f]	1r
.	2B-y	4e	.
.	.	4d	.
1C	1c	1e	1g
=55	=55	=55	=55
0G	2B-y	0d	1.g
.	4A	.	.
.	4G	.	.
.	1B-y	.	.
.	.	.	2a
=56	=56	=56	=56
0r	1B-y	1r	[0b-y
.	1B-y	[1d	.
=57	=57	=57	=57
1.B-y	1f	2d]	0b-]
.	.	2e	.
.	[1d	1f	.
2A	.	.	.
=58	=58	=58	=58
1G	2d]	1g	1r
.	2e	.	.
2.F	1f	1c	1a
4G	.	.	.
=59	=59	=59	=59
2A	1r	1.c	1.a
1F	.	.	.
.	1F	.	.
4E	.	2d	2b-y
4D	.	.	.
=60	=60	=60	=60
0C	1.G	1e	1.cc
.	.	1c	.
.	2A	.	4b-y
.	.	.	4a
=61	=61	=61	=61
1G	2B-y	1.d	2g
.	2G	.	2.b-y
[1G	[1g	.	.
.	.	.	4cc
.	.	2d	[2dd
=62	=62	=62	=62
2G]	2g]	1e	2dd]
2A	2c	.	2cc
1B-y	2g	2.d	1b-y
.	[2f	.	.
.	.	4e	.
=63	=63	=63	=63
1F	4f]	4f	2a
.	4e	4g	.
.	2c	1a	1cc
2F	1d	.	.
2G	.	2g	2b-y
=64	=64	=64	=64
2A	1.c	2e	1a
2F	.	2f	.
1G	.	[1dl	[1g
.	2B-y	.	.
=65	=65	=65	=65
0D	0A	0d_	2g]
.	.	.	4f#i
.	.	.	4e
.	.	.	1f#i
=	=	=	=
00G	00G	00d]	00g
=||	=||	=||	=||
*M2/1	*M2/1	*M2/1	*M2/1
*met(C|)	*met(C|)	*met(C|)	*met(C|)
!!section: Pars II: O Domine Jesu Christe
!!!OMD: Pars II: O Domine Jesu Christe
0r	0d	0r	0r
=66	=66	=66	=66
0r	0f	0r	0a
=67	=67	=67	=67
0r	1.f	0r	1cc
.	.	.	1cc
.	2e	.	.
=68	=68	=68	=68
0G	1d	0r	0dd
.	1g	.	.
=69	=69	=69	=69
0B-y	1.f	0d	1dd
.	.	.	[1ff
.	4e	.	.
.	4d	.	.
=70	=70	=70	=70
1.B-y	1d	1f	2ff]
.	.	.	2ee
.	1r	1f	2dd
2A	.	.	2cc
=71	=71	=71	=71
0G	1d	1.g	0b-y
.	2e	.	.
.	2d	4f	.
.	.	4e	.
=72	=72	=72	=72
1.G	1g	0d	2r
.	.	.	1b-y
.	2G	.	.
2F	2A	.	2a
=73	=73	=73	=73
1G	1B-y	1d	1g
2.D	1d	[1f	1a
4E	.	.	.
=74	=74	=74	=74
2F	2c	2f]	1r
2G	1B-y	2e	.
2B-y	.	2d	1f
2A	2c	[2c	.
=75	=75	=75	=75
1G	1d	4c]	1.g
.	.	4Bni	.
.	.	2Bni	.
1C	1e	1c	.
.	.	.	2a
=76	=76	=76	=76
1r	2d	2G	1b-y
.	2G	1g	.
1c	1r	.	1cc
.	.	4f	.
.	.	4e	.
=77	=77	=77	=77
1.B-y	0r	2f	1.dd
.	.	2d	.
.	.	1f	.
2A	.	.	2cc
=78	=78	=78	=78
2.A	0r	1.c	2ff
.	.	.	2.ee
4G	.	.	.
2A	.	.	.
.	.	.	4dd
2B-y	.	2d	[2dd
=79	=79	=79	=79
1c	0g	1e	2dd]
.	.	.	2cc#i
2.G	.	[1d	[1dd
4F	.	.	.
=80	=80	=80	=80
1D	1.f	2d]	1dd]
.	.	4c	.
.	.	4B-y	.
1r	.	[1A	1r
.	2e	.	.
=81	=81	=81	=81
0r	2.e	1A]	0cc
.	4d	.	.
.	2e	1r	.
.	2f	.	.
=82	=82	=82	=82
0r	1g	1G	1.b-y
.	[1d	[1G	.
.	.	.	2b-y
=83	=83	=83	=83
0r	2d]	2G]	2b-y
.	2c	2A	1a
.	2.d	1B-y	.
.	.	.	[2g
.	8cL	.	.
.	8B-yJ	.	.
=84	=84	=84	=84
1r	1A	1c	2g]
.	.	.	2f
1G	1r	[1d	1b-y
=85	=85	=85	=85
2D	0r	2d]	1.a
2.F	.	2c	.
.	.	2f	.
4G	.	.	.
2A	.	[2e	2cc
=86	=86	=86	=86
2.G	0g	4e]	1dd
.	.	4d	.
.	.	1d	.
4F	.	.	.
1E	.	.	1ee
.	.	2c#i	.
=87	=87	=87	=87
1D	1.f	1d	1ff
1C	.	1g	2r
.	2e	.	2cc
=88	=88	=88	=88
2G	1d	2g	2b-y
2B-y	.	2g	2g
1A	1c	1f	1a
=89	=89	=89	=89
1G	1.d	1g	1b-y
1A	.	1e	[1a
.	2c	.	.
=90	=90	=90	=90
2A	2f	1c	1a]
2A	2.e	.	.
1G	.	2.d	1r
.	4d	.	.
.	[2d	.	.
.	.	4e	.
=91	=91	=91	=91
1A	2d]	2f	1a
.	2c	2e	.
1D	2d	1f	2a
.	[2f	.	2a
=92	=92	=92	=92
0r	2f]	1c	1g
.	2e	.	.
.	2.d	[1f	1a
.	4c	.	.
=93	=93	=93	=93
1r	[0B-y	2f]	2d
.	.	2d	2f
1G	.	2e	2.g
.	.	[2d	.
.	.	.	4a
=94	=94	=94	=94
2G	1B-]	2d]	1b-y
2G	.	4c	.
.	.	4B-y	.
1F	1r	2c	1a
.	.	2d	.
=95	=95	=95	=95
1G	1d	1B-y	2r
.	.	.	2g
1D	2d	[1A	2.a
.	2d	.	.
.	.	.	4b-y
=96	=96	=96	=96
1r	1c	1A]	2cc
.	.	.	1a
1D	1d	1A	.
.	.	.	[2dd
=97	=97	=97	=97
1G	2G	2B-y	4dd]
.	.	.	4cc
.	2B-y	2G	2b-y
2F	2.c	2A	2a
2C	.	2c	[2g
.	4d	.	.
=98	=98	=98	=98
0G	1e	2B-y	2g]
.	.	2G	2.b-y
.	[1d	2.B-y	.
.	.	.	4a
.	.	.	[2g
.	.	4c	.
=99	=99	=99	=99
1D	0d_	1A	2g]
.	.	.	2f#i
1r	.	[1G	[1g
=100	=100	=100	=100
1.G	1d]	1G]	2g]
.	.	.	4f
.	.	.	4e
.	1r	1r	[1d
2F	.	.	.
=101	=101	=101	=101
0B-y	1.f	0r	0d]
.	2g	.	.
=102	=102	=102	=102
1A	1a	1.c	0r
1r	[1g	.	.
.	.	2B-y	.
=103	=103	=103	=103
1r	1g]	0e-i	1.b-y
[1G	1r	.	.
.	.	.	2cc
=104	=104	=104	=104
2G]	2r	2d	0dd
2F	1f	2d	.
1B-y	.	1d	.
.	2g	.	.
=105	=105	=105	=105
2A	1a	2e	0cc
4G	.	1f	.
4F	.	.	.
1c	1g	.	.
.	.	2e	.
=106	=106	=106	=106
0F	1.f	2d	1a
.	.	2c	.
.	.	2d	2a
.	4e	4c	2a
.	4d	4B-y	.
=107	=107	=107	=107
0r	1c	1A	1.cc
.	1d	1G	.
.	.	.	2b-y
=108	=108	=108	=108
1D	2d	0r	0a
.	2d	.	.
2D	[1f	.	.
2D	.	.	.
=109	=109	=109	=109
1.F	2f]	0r	1r
.	2f	.	.
.	1c	.	1cc
2E	.	.	.
=110	=110	=110	=110
1D	1.f	1d	2dd
.	.	.	2dd
2r	.	2d	[1ff
[2D	4e	2d	.
.	4d	.	.
=111	=111	=111	=111
4D]	2d	1.f	2ff]
4E	.	.	.
4F	4c	.	2ff
4G	4B-y	.	.
1A	1c	.	1cc
.	.	2e	.
=112	=112	=112	=112
1r	0B-y	0d	1.dd
[1G	.	.	.
.	.	.	2cc
=113	=113	=113	=113
1G]	1r	0d	2b-y
.	.	.	4a
.	.	.	4g
1D	[1a	.	[1f
=114	=114	=114	=114
2.F	1a]	1A	1f]
4G	.	.	.
1A	1f	[1c	1r
=115	=115	=115	=115
0r	1.g	2c]	0cc
.	.	2B-y	.
.	.	1A	.
.	2f	.	.
=116	=116	=116	=116
0r	1e	2.c	1g
.	.	4B-y	.
.	[1d	1G	[1b-y
=117	=117	=117	=117
0G	2d]	1r	2b-]
.	2c	.	2a
.	1B-y	[1d	1g
=118	=118	=118	=118
1D	0A	1d]	[0f
[1F	.	1A	.
=119	=119	=119	=119
2F]	1r	1.c	1f]
2E	.	.	.
1D	1F	.	1f
.	.	2B-y	.
=120	=120	=120	=120
1.F	1.c	1A	1f
.	.	[1F	2.a
2E	2c	.	.
.	.	.	4g
=121	=121	=121	=121
2D	2d	2F]	4a
.	.	.	4b-y
2C	2e	2G	2.cc
1F	1f	1A	.
.	.	.	4b-y
.	.	.	[2a
=122	=122	=122	=122
[0G	0d	[0B-y	2a]
.	.	.	4g
.	.	.	4f
.	.	.	2g
.	.	.	[2b-y
=123	=123	=123	=123
0G]	1e	0B-]	4b-]
.	.	.	4a
.	.	.	4g
.	.	.	4f
.	[1dl	.	1g
=	=	=	=
00D	00d]	00A	00f
=||	=||	=||	=||
*M2/1	*M2/1	*M2/1	*M2/1
*met(C|)	*met(C|)	*met(C|)	*met(C|)
!!section: Pars III: O Domine Jesu Christe
!!!OMD: Pars III: O Domine Jesu Christe
0r	0r	0d	0r
=124	=124	=124	=124
1r	0r	0f	0r
[1D	.	.	.
=125	=125	=125	=125
1D]	0r	1.f	0r
[1G	.	.	.
.	.	2e	.
=126	=126	=126	=126
1G]	0r	0d	0r
[1G	.	.	.
=127	=127	=127	=127
2G]	0r	1.d	0r
2F	.	.	.
1E	.	.	.
.	.	2c	.
=128	=128	=128	=128
2.D	0r	1B-y	0dd
4E	.	.	.
2F	.	2A	.
2G	.	[2B-y	.
=129	=129	=129	=129
0D	1r	2B-]	0ff
.	.	4A	.
.	.	4G	.
.	[1d	2A	.
.	.	[2B-y	.
=130	=130	=130	=130
0r	1d]	4B-]	1.ff
.	.	4A	.
.	.	2B-y	.
.	[1g	1c	.
.	.	.	2ee
=131	=131	=131	=131
1r	1g]	2.G	0dd
.	.	4A	.
2r	[1g	[1B-y	.
2G	.	.	.
=132	=132	=132	=132
2G	2g]	1B-]	1.dd
2D	2f	.	.
1A	1e	1r	.
.	.	.	2cc
=133	=133	=133	=133
2r	1d	2B-y	1b-y
2G	.	4B-y	.
.	.	4c	.
2F	[1d	4d	[1a
.	.	4e	.
2D	.	2f	.
=134	=134	=134	=134
1A	2d]	1e	1a]
.	2c	.	.
1r	1B-y	1d	2.f
.	.	.	4g
=135	=135	=135	=135
0r	2A	2r	4a
.	.	.	4b-y
.	2.e	2c	1cc
.	.	2c	.
.	4f	.	.
.	[2g	2G	2b-y
=136	=136	=136	=136
0r	2g]	1d	1a
.	2f	.	.
.	2.g	1G	1g
.	4f	.	.
=137	=137	=137	=137
0r	4e	1A	2r
.	4d	.	.
.	2f	.	2cc
.	1e	2r	2cc
.	.	2c	2g
=138	=138	=138	=138
1G	2r	2B-y	1dd
.	2g	2G	.
1B-y	2f	1d	[1dd
.	2d	.	.
=139	=139	=139	=139
1A	0a	1e	2dd]
.	.	.	2cc#i
[1D	.	1f	1dd
=140	=140	=140	=140
1D]	1.f	1d	0a
[1F	.	[1c	.
.	2f	.	.
=141	=141	=141	=141
0F]	0f	2c]	1a
.	.	2.d	.
.	.	.	[1a
.	.	4c	.
.	.	2A	.
=142	=142	=142	=142
2r	1d	1B-y	2a]
1G	.	.	2g
.	1r	1A	[1cc
2F	.	.	.
=143	=143	=143	=143
1G	1.g	0d	2cc]
.	.	.	2b-y
1D	.	.	1a
.	2f	.	.
=144	=144	=144	=144
1G	1g	0B-y	2r
.	.	.	2.dd
[1G	[1d	.	.
.	.	.	4cc
.	.	.	4b-y
.	.	.	4a
=145	=145	=145	=145
2G]	1d]	2r	2b-y
2F	.	1f	2a
[1B-y	1d	.	2.b-y
.	.	[2f	.
.	.	.	4a
=146	=146	=146	=146
2B-]	1.d	2f]	2f
2B-y	.	4e	2g
.	.	4d	.
1A	.	1e	[1a
.	2c	.	.
=147	=147	=147	=147
2.F	1.f	2d	1a]
.	.	1c	.
4G	.	.	.
1A	.	.	1a
.	2e	2c	.
=148	=148	=148	=148
1D	0d	0f	0a
[1D	.	.	.
=149	=149	=149	=149
1D]	1f	1d	1a
[1G	[1g	1d	1b-y
=150	=150	=150	=150
1G]	1g]	1d	1.b-y
1G	1g	1d	.
.	.	.	2b-y
=151	=151	=151	=151
1.B-y	0f	1.d	0b-y
2B-y	.	2d	.
=152	=152	=152	=152
1B-y	1.f	1d	1b-y
1c	.	1r	2a
.	2e	.	2g
=153	=153	=153	=153
1F	2f	1A	0cc
.	4e	.	.
.	4d	.	.
1r	2f	2A	.
.	2e	2A	.
=154	=154	=154	=154
1r	0f	1d	2a
.	.	.	2.b-y
1B-y	.	2.d	.
.	.	.	4cc
.	.	.	2dd
.	.	4e	.
=155	=155	=155	=155
2A	0r	2f	2cc
2G	.	1g	2b-y
[1c	.	.	1cc
.	.	[2f	.
=156	=156	=156	=156
1c]	1r	2f]	1g
.	.	2e	.
2.F	1f	2d	1r
.	.	[2c	.
4G	.	.	.
=157	=157	=157	=157
2A	2e	2c]	2r
2B-y	2d	2f	2dd
1c	[1g	2e	1cc
.	.	4d	.
.	.	4c	.
=158	=158	=158	=158
1G	1g]	1d	1b-y
[1A	2e	[1c	1a
.	[2f	.	.
=159	=159	=159	=159
1A]	4f]	1c]	1cc
.	4g	.	.
.	2a	.	.
1B-y	2g	2.d	2b-y
.	2f	.	[2dd
.	.	4c	.
=160	=160	=160	=160
2G	1g	4B-y	4dd]
.	.	4A	4cc
2.B-y	.	1G	4b-y
.	.	.	4a
.	2d	.	2g
4A	.	.	.
2F	[2f	[2c	2a
=161	=161	=161	=161
1G	2f]	2c]	1b-y
.	2e	2B-y	.
[1F	[1f	[1c	[1a
=162	=162	=162	=162
1F]	1f]	1c]	1a]
1r	[1d	[1B-y	1r
=163	=163	=163	=163
1.G	2d]	2B-]	1r
.	2d	2B-y	.
.	2d	[1B-y	[1g
2G	[2e	.	.
=164	=164	=164	=164
1G	2e]	0B-_	2g]
.	4d	.	2g
.	4c	.	.
[1G	1d	.	[1g
=165	=165	=165	=165
1G]	0d	1B-]	1g]
1D	.	[1A	[1f
=166	=166	=166	=166
1.F	0c	1A]	1f]
.	.	1A	1f
2F	.	.	.
=167	=167	=167	=167
2C	1.e	1.c	0g
2C	.	.	.
2.G	.	.	.
.	2d	2B-y	.
4A	.	.	.
=168	=168	=168	=168
1B-y	1d	2A	1g
.	.	2G	.
[1A	1f	1c	[1a
=169	=169	=169	=169
2A]	1e	1r	2a]
2G	.	.	2b-y
2F	[1a	[1c	[1cc
2F	.	.	.
=170	=170	=170	=170
1C	2a]	2c]	0cc]
.	2g	2c	.
1r	2f	1A	.
.	2e	.	.
=171	=171	=171	=171
0r	1d	1.B-y	1.dd
.	1g	.	.
.	.	2c	2cc
=172	=172	=172	=172
0r	2g	1d	2b-y
.	2f	.	2a
.	1b-y	1r	1g
=173	=173	=173	=173
0r	2r	1.g	0dd
.	1b-y	.	.
.	2a	2f	.
=174	=174	=174	=174
0r	2g	2e	2cc
.	2f	2d	2b-y
.	1g	1c	[1cc
=175	=175	=175	=175
1.c	1e	0g	1cc]
.	2r	.	1r
2B-y	2d	.	.
=176	=176	=176	=176
2A	2c	2f	1r
2G	2B-y	2e	.
1F	2c	2.f	[1a
.	[2f	.	.
.	.	8eL	.
.	.	8dJ	.
=177	=177	=177	=177
0A	2f]	1c	1a]
.	1e	.	.
.	.	1r	1cc
.	2c	.	.
=178	=178	=178	=178
2G	0d	2r	2b-y
2F	.	2A	1a
1G	.	2.B-y	.
.	.	.	2g
.	.	4c	.
=179	=179	=179	=179
2D	2f	2d	2a
2C	1g	2G	2.cc
2E	.	1c	.
.	.	.	4b-y
2F	2f	.	[2a
=180	=180	=180	=180
1G	0d	1B-y	2a]
.	.	.	2g
[1D	.	1A	[1a
=181	=181	=181	=181
1D]	1f	1r	2a]
.	.	.	4g
.	.	.	4f
1r	4f	[1d	1a
.	4e	.	.
.	4d	.	.
.	4c	.	.
=182	=182	=182	=182
1.G	2B-y	2d]	1g
.	2G	2d	.
.	[1g	1e	1r
2A	.	.	.
=183	=183	=183	=183
1B-y	2g]	1d	0r
.	2f	.	.
2.c	1e	1r	.
4B-y	.	.	.
=184	=184	=184	=184
2G	1d	1r	1.dd
2B-y	.	.	.
2B-y	1r	[1d	.
2A	.	.	2cc
=185	=185	=185	=185
1G	1.d	2d]	1b-y
.	.	2e	.
1F	.	1f	1a
.	2c	.	.
=186	=186	=186	=186
0r	0B-y	2.g	1.dd
.	.	4f	.
.	.	2d	.
.	.	[2f	2dd
=187	=187	=187	=187
1r	0A	2f]	1cc
.	.	2e	.
[1D	.	[1d	2.dd
.	.	.	4cc
=188	=188	=188	=188
2D]	2A	2d]	2a
2E	2G	4c	1cc
.	.	4B-y	.
2F	2c	2A	.
2D	2F	[2d	4b-y
.	.	.	4a
=189	=189	=189	=189
1E	1G	2d]	1g
.	.	2c#i	.
[1D	2r	[1d	[1f
.	[2A	.	.
=190	=190	=190	=190
1D]	2A]	1d]	1f]
.	2B-y	.	.
2r	2c	1A	[1a
[2F	2A	.	.
=191	=191	=191	=191
2F]	1d	1r	2a]
2G	.	.	2b-y
2A	2c	2r	2cc
2F	2d	[2d	2a
=192	=192	=192	=192
1G	1G	2d]	1b-y
.	.	2e	.
1D	2r	2.f	2a
.	[2d	.	[2dd
.	.	4e	.
=193	=193	=193	=193
2r	2d]	2f	2dd]
1A	2e	2.c	1cc
.	2f	.	.
.	.	4B-y	.
2B-y	2d	2G	4b-y
.	.	.	4a
=194	=194	=194	=194
2c	1e	0r	2g
2A	.	.	2a
1B-y	[1d	.	1f
=195	=195	=195	=195
0A	2d]	1.e	1r
.	4c#i	.	.
.	4Bni	.	.
.	1c#i	.	1a
.	.	2f	.
=196	=196	=196	=196
2G	2d	2g	2b-y
2A	1c	2e	2cc
2.F	.	1f	2a
.	2A	.	[2dd
4G	.	.	.
=197	=197	=197	=197
1A	[0Al	1e	2dd]
.	.	.	2cc#i
[1Dl	.	[1dl	[1ddl
=	=	=	=
00D]	00A]	00d]	00dd]
=||	=||	=||	=||
*M2/1	*M2/1	*M2/1	*M2/1
*met(C|)	*met(C|)	*met(C|)	*met(C|)
!!section: Pars IV: O Domine Jesu Christe
!!!OMD: Pars IV: O Domine Jesu Christe
0r	0r	0r	0a
=198	=198	=198	=198
0r	1r	0r	0dd
.	[1d	.	.
=199	=199	=199	=199
0r	1d]	0r	1.dd
.	[1g	.	.
.	.	.	2cc
=200	=200	=200	=200
0r	1g]	0G	2b-y
.	.	.	4a
.	.	.	4g
.	[1g	.	1b-y
=201	=201	=201	=201
1r	2g]	1d	1a
.	2f	.	.
[1C	2e	1c	1r
.	4d	.	.
.	4c	.	.
=202	=202	=202	=202
1C]	1e	1.c	0g
1G	[1d	.	.
.	.	2B-y	.
=203	=203	=203	=203
1F	1d]	2A	0a
.	.	4G	.
.	.	4F	.
[1F	1c	2.A	.
.	.	4G	.
=204	=204	=204	=204
2F]	0f	4A	1cc
.	.	4B-y	.
2E	.	1c	.
1D	.	.	1dd
.	.	2Bni	.
=205	=205	=205	=205
0C	[0e	0c	1g
.	.	.	1r
=206	=206	=206	=206
0C	0e]	1r	1g
.	.	[1G	[1cc
=207	=207	=207	=207
1C	0c	1G]	2cc]
.	.	.	2b-y
[1F	.	[1A	2.a
.	.	.	4g
=208	=208	=208	=208
2F]	1d	1A]	1f
4E	.	.	.
4D	.	.	.
1C	2e	1c	2.g
.	[2g	.	.
.	.	.	4a
=209	=209	=209	=209
0r	2g]	1d	2b-y
.	2f	.	2a
.	1g	2G	1b-y
.	.	[2g	.
=210	=210	=210	=210
0D	0d	2g]	0a
.	.	4f	.
.	.	4e	.
.	.	2f	.
.	.	[2d	.
=211	=211	=211	=211
0E-X	0G	2d]	0g
.	.	4c	.
.	.	4B-y	.
.	.	1c	.
=212	=212	=212	=212
1G	2.d	1B-y	1r
.	4e	.	.
1A	2f	1r	[1a
.	2e	.	.
=213	=213	=213	=213
0D	1f	1d	1a]
.	[1d	[1f	[1a
=214	=214	=214	=214
1r	1d]	2f]	2a]
.	.	2f	2a
1A	[1e	1c	2.cc
.	.	.	4b-y
=215	=215	=215	=215
1.c	1e]	1r	1g
.	1g	[1e	[1cc
2B-y	.	.	.
=216	=216	=216	=216
1A	1a	2e]	1cc]
.	.	2f	.
1G	1d	2g	2b-y
.	.	2d	4a
.	.	.	4g
=217	=217	=217	=217
2.F	1A	1.f	1a
4E	.	.	.
1C	[1c	.	1g
.	.	2e	.
=218	=218	=218	=218
1G	2c]	2.d	1r
.	2B-y	.	.
.	.	4e	.
1r	1A	2f	[1a
.	.	2e	.
=219	=219	=219	=219
0r	1r	1d	2a]
.	.	.	2b-y
.	1e	1c	2cc
.	.	.	2g
=220	=220	=220	=220
0r	2f	1.B-y	1.b-y
.	2g	.	.
.	2d	.	.
.	[2f	2F	2a
=221	=221	=221	=221
1r	2f]	2.c	1g
.	2e	.	.
.	.	4d	.
[1A	1c	1e	2r
.	.	.	[2cc
=222	=222	=222	=222
2A]	1r	1f	2cc]
2B-y	.	.	2b-y
2c	1e	1r	2g
2G	.	.	[2b-y
=223	=223	=223	=223
1.B-y	2f	0d	2b-]
.	2g	.	4a
.	.	.	4g
.	2d	.	1f
2A	[2f	.	.
=224	=224	=224	=224
1G	2f]	1B-y	1g
.	2e	.	.
[1F	1d	1f	[1a
=225	=225	=225	=225
1F]	0c	2f	0a_
.	.	2f	.
1A	.	2e	.
.	.	2e	.
=226	=226	=226	=226
1F	1r	1f	1a]
1A	1e	2.c	1r
.	.	4d	.
=227	=227	=227	=227
2A	1c	2e	1a
2A	.	2.f	.
[1B-y	1r	.	[1f
.	.	4e	.
.	.	4d	.
.	.	4c	.
=228	=228	=228	=228
2B-]	1r	2B-y	1f]
2A	.	2c	.
[1G	1g	1d	1b-y
=229	=229	=229	=229
2G]	0d	1G	2b-y
4F	.	.	2b-y
4E	.	.	.
2F	.	2A	2a
2G	.	2B-y	2g
=230	=230	=230	=230
0F	1f	1c	1a
.	2f	[1A	[1cc
.	2f	.	.
=231	=231	=231	=231
0r	2e	2A]	2cc]
.	2d	2B-y	2b-y
.	1e	1c	2.g
.	.	.	4a
=232	=232	=232	=232
1B-y	1.f	0d	4b-y
.	.	.	4cc
.	.	.	1dd
2B-y	.	.	.
2B-y	2d	.	2b-y
=233	=233	=233	=233
2A	0e	0r	2cc
2G	.	.	1dd
1A	.	.	.
.	.	.	2cc
=234	=234	=234	=234
1.B-y	1.d	1r	2.b-y
.	.	.	8aL
.	.	.	8gJ
.	.	1f	2b-y
2A	4c	.	2cc
.	4B-y	.	.
=235	=235	=235	=235
1F	1c	2f	1a
.	.	2f	.
1r	1G	2e	2r
.	.	2d	[2g
=236	=236	=236	=236
0r	1c	1e	2g]
.	.	.	2g
.	2r	[1f	2.a
.	[2F	.	.
.	.	.	4b-y
=237	=237	=237	=237
1r	2F]	2f]	0cc
.	2G	2e	.
2r	2.A	1c	.
[2C	.	.	.
.	4B-y	.	.
=238	=238	=238	=238
2C]	1c	1r	0a
2F	.	.	.
2.F	[1e	2r	.
.	.	[2c	.
4G	.	.	.
=239	=239	=239	=239
1.A	2e]	2c]	1.cc
.	2f	2c	.
.	1g	2.d	.
2G	.	.	2b-y
.	.	4e	.
=240	=240	=240	=240
0F	1c	1f	2.a
.	.	.	4g
.	1r	1c	1f
=241	=241	=241	=241
1.B-y	1.G	1r	1r
.	.	[1d	[1b-y
2A	2A	.	.
=242	=242	=242	=242
1G	1B-y	1d]	1b-]
2.F	[1c	[1f	1a
4E	.	.	.
=243	=243	=243	=243
1C	1c]	2f]	1.cc
.	.	2e	.
1r	1G	1d	.
.	.	.	2b-y
=244	=244	=244	=244
1C	1.c	1c	2a
.	.	.	2g
1D	.	1F	[1f
.	2B-y	.	.
=245	=245	=245	=245
1F	1A	0c	1f]
1E	2.G	.	1r
.	4A	.	.
=246	=246	=246	=246
0D	2B-y	1d	0f
.	2.A	.	.
.	.	[1f	.
.	4G	.	.
.	4A	.	.
.	4F	.	.
=247	=247	=247	=247
1C	1c	2f]	1g
.	.	2e	.
[1G	1B-y	1d	2.b-y
.	.	.	8aL
.	.	.	8gJ
=248	=248	=248	=248
2G]	2G	[0dl	2b-y
2F	2A	.	1a
1G	1B-y	.	.
.	.	.	2g
=	=	=	=
00D	00f	00d]	00a
=||	=||	=||	=||
*M2/1	*M2/1	*M2/1	*M2/1
*met(C|)	*met(C|)	*met(C|)	*met(C|)
!!section: Pars V: O Domine Jesu Christe
!!!OMD: Pars V: O Domine Jesu Christe
0r	0r	0g	0r
=249	=249	=249	=249
0r	0r	1e	0g
.	.	1e	.
=250	=250	=250	=250
0r	0r	1d	1dd
.	.	[1f	1cc
=251	=251	=251	=251
0r	0r	2f]	1.cc
.	.	2e	.
.	.	2f	.
.	.	[2g	2b-y
=252	=252	=252	=252
1r	0r	2g]	1a
.	.	2f#i	.
[1G	.	[1g	1g
=253	=253	=253	=253
1G]	1r	0g_	1b-y
1E	[1G	.	2cc
.	.	.	[2dd
=254	=254	=254	=254
1E	1G]	1g]	2dd]
.	.	.	2cc
1D	1d	[1f	[1a
=255	=255	=255	=255
1.F	1c	1f]	1a]
.	[1c	1r	1r
2E	.	.	.
=256	=256	=256	=256
2F	2c]	1r	0r
1G	2B-y	.	.
.	1A	[1d	.
2F	.	.	.
=257	=257	=257	=257
1G	2G	1d]	0r
.	1B-y	.	.
1E	.	1g	.
.	[2c	.	.
=258	=258	=258	=258
0F	2c]	1f	1a
.	2d	.	.
.	1A	[1f	1cc
=259	=259	=259	=259
0r	2d	2f]	2b-y
.	2c	2e	1a
.	1B-y	1d	.
.	.	.	2g
=260	=260	=260	=260
1A	1F	1c	1a
[1c	1r	1e	2r
.	.	.	2g
=261	=261	=261	=261
2c]	1r	2e	1.cc
2B-y	.	1g	.
1A	1c	.	.
.	.	2f	2cc
=262	=262	=262	=262
0G	1.g	0d	2b-y
.	.	.	2.dd
.	.	.	4cc
.	2f	.	2b-y
=263	=263	=263	=263
1C	1e	1c	2a
.	.	.	2g
2r	1r	1f	2a
2F	.	.	[2cc
=264	=264	=264	=264
1G	1g	2e	2cc]
.	.	1d	1b-y
1E	[1g	.	.
.	.	2c#i	4a
.	.	.	4g
=265	=265	=265	=265
1D	2g]	1d	1a
.	2f	.	.
1C	1e	2r	[1cc
.	.	2g	.
=266	=266	=266	=266
1G	0d	1.g	2cc]
.	.	.	4b-y
.	.	.	4a
1G	.	.	1b-y
.	.	2f	.
=267	=267	=267	=267
1C	1c	1e	[0g
[1G	[1B-y	1d	.
=268	=268	=268	=268
1G]	2B-]	2d	1g]
.	2B-y	2.e	.
2F	2A	.	1a
.	.	4d	.
4E	4G	[2d	.
4D	4F	.	.
=269	=269	=269	=269
2E	2.G	2d]	1r
2E	.	2c	.
.	4A	.	.
[1D	2B-y	2.d	1ff
.	2A	.	.
.	.	4c	.
=270	=270	=270	=270
1D]	1d	2B-y	1.ff
.	.	2A	.
1r	1r	2B-y	.
.	.	2c	2ee
=271	=271	=271	=271
1r	1f	1d	1dd
[1F	[1f	[1a	[1cc
=272	=272	=272	=272
1F]	2f]	1a]	1cc]
.	2e	.	.
1G	1d	1g	1b-y
=273	=273	=273	=273
1A	1c	1e	1.a
2F	2f	1r	.
2G	[2e	.	2g
=274	=274	=274	=274
1.A	4e]	1a	2f
.	4d	.	.
.	1d	.	4e
.	.	.	4d
.	.	[1a	1e
2A	2c#i	.	.
=275	=275	=275	=275
2D	2d	2a]	1r
2E	2G	2g	.
1F	2.A	1f	1cc
.	4B-y	.	.
=276	=276	=276	=276
0C	0c	0e	1cc
.	.	.	[1cc
=277	=277	=277	=277
0r	1G	1d	2cc]
.	.	.	2b-y
.	1A	[1c	1a
=278	=278	=278	=278
1A	2r	2c]	1a
.	2e	2c	.
[1d	2f	2B-y	1b-y
.	2g	4A	.
.	.	4G	.
=279	=279	=279	=279
2d]	1e	1A	1a
2c	.	.	.
1B-y	1r	1G	1d
=280	=280	=280	=280
0A	1.c	2r	1.a
.	.	1e	.
.	2c	2f	2a
=281	=281	=281	=281
1G	2d	2g	1b-y
.	2e	2g	.
[1F	2.f	2.a	[1cc
.	4e	4g	.
=282	=282	=282	=282
2F]	2c	4f	2cc]
.	.	4e	.
2F	2.A	2.d	2dd
2E	.	.	1ee
.	4G	4c	.
4D	[2G	[2c	.
4C	.	.	.
=283	=283	=283	=283
1D	2G]	2c]	1ff
.	2F	2Bni	.
1C	1G	1c	2ee
.	.	.	[2cc
=284	=284	=284	=284
1r	1.d	1G	2cc]
.	.	.	2b-y
[1F	.	1r	2.a
.	2c	.	.
.	.	.	4b-y
=285	=285	=285	=285
2F]	1f	0r	4cc
.	.	.	4a
2F	.	.	1dd
2G	2.e	.	.
2A	.	.	2cc
.	4f	.	.
=286	=286	=286	=286
1B-y	2g	0r	2.b-y
.	2f	.	.
.	.	.	4a
[1c	1e	.	[1g
=287	=287	=287	=287
2c]	2c	2r	1g]
2B-y	2d	1d	.
1A	1e	.	[1a
.	.	2c	.
=288	=288	=288	=288
1D	1d	1.f	2a]
.	.	.	2a
1r	1r	.	2cc
.	.	4e	[2dd
.	.	4d	.
=289	=289	=289	=289
1r	0r	1e	2dd]
.	.	.	2cc#i
[1G	.	2.d	1dd
.	.	4c	.
=290	=290	=290	=290
2G]	1.d	2B-y	1r
2F	.	2A	.
[1B-y	.	1G	1dd
.	2d	.	.
=291	=291	=291	=291
2B-]	2f	0r	1dd
4A	1g	.	.
4G	.	.	.
1A	.	.	1cc
.	2f	.	.
=292	=292	=292	=292
2.G	1g	1d	1b-y
4F	.	.	.
1D	2f	1d	[1a
.	4e	.	.
.	4d	.	.
=293	=293	=293	=293
1r	1e	1c	1a]
[1G	1r	2.B-y	1r
.	.	8AL	.
.	.	8GJ	.
=294	=294	=294	=294
2G]	1.d	2B-y	1r
2F	.	2A	.
[1B-y	.	1G	1dd
.	2d	.	.
=295	=295	=295	=295
2B-]	2f	0r	1dd
4A	1g	.	.
4G	.	.	.
1A	.	.	1cc
.	2f#i	.	.
=296	=296	=296	=296
2.G	1g	1d	1b-y
4F	.	.	.
1D	1r	1d	2.a
.	.	.	4b-y
=297	=297	=297	=297
0r	1g	1c	4cc
.	.	.	4dd
.	.	.	2ee
.	1g	1B-y	2.dd
.	.	.	4ee
=298	=298	=298	=298
0r	1f	0A	2ff
.	.	.	1dd
.	1e	.	.
.	.	.	2cc
=299	=299	=299	=299
1G	2.d	0B-y	1b-y
.	4c	.	.
1G	2d	.	1g
.	2e	.	.
=300	=300	=300	=300
1F	2f	0c	2a
.	2F	.	2.cc
1E	2.G	.	.
.	.	.	4b-y
.	.	.	4a
.	4A	.	4g
=301	=301	=301	=301
1D	2B-y	1.d	[0f
.	1A	.	.
[1F	.	.	.
.	4G	4c	.
.	4F	4B-y	.
=302	=302	=302	=302
2F]	2A	2.c	1f]
4E	2B-y	.	.
4D	.	4d	.
[1C	2c	[1e-i	[1g
.	2G	.	.
=303	=303	=303	=303
1C]	1c	1e-]	1g]
[1G	1B-y	1d	2.g
.	.	.	4a
=304	=304	=304	=304
2G]	1r	2e	2b-y
2F	.	1f	1a
1B-y	[1d	.	.
.	.	4e	2g
.	.	4d	.
=305	=305	=305	=305
[0Al	2d]	1e	[0al
.	2c	.	.
.	1f	[1cl	.
=	=	=	=
00A]	00e	00c]	00a]
=||	=||	=||	=||
*M2/1	*M2/1	*M2/1	*M2/1
*met(C|)	*met(C|)	*met(C|)	*met(C|)
!!section: Pars VI: O Domine Jesu Christe
!!!OMD: Pars VI: O Domine Jesu Christe
0D	0r	0r	0r
=306	=306	=306	=306
1E	0r	0r	0r
1C	.	.	.
=307	=307	=307	=307
0D	0A	0r	0r
=308	=308	=308	=308
1D	1B-y	0r	0r
2E	1G	.	.
[2G	.	.	.
=309	=309	=309	=309
2G]	0A	0r	0r
4F#i	.	.	.
4E	.	.	.
1F#i	.	.	.
=310	=310	=310	=310
2.G	2.B-y	0d	0r
4F	4A	.	.
2G	4B-y	.	.
.	4c	.	.
2B-y	[2d	.	.
=311	=311	=311	=311
0A	2d]	1e	0r
.	2c	.	.
.	2f	1c	.
.	2e	.	.
=312	=312	=312	=312
0D	1f	0d	0a
.	4f	.	.
.	4e	.	.
.	4d	.	.
.	4c	.	.
=313	=313	=313	=313
1G	1B-y	1d	1b-y
1C	2c	2e	1g
.	2e-i	[2g	.
=314	=314	=314	=314
0r	0d	2g]	0a
.	.	4f	.
.	.	4e	.
.	.	[1f	.
=315	=315	=315	=315
0A	0c	2f]	1a
.	.	4e	.
.	.	4d	.
.	.	2e	1cc
.	.	[2f	.
=316	=316	=316	=316
1B-y	0r	2f]	1.dd
.	.	2.d	.
1G	.	.	.
.	.	4c	.
.	.	4d	2g
.	.	4e	.
=317	=317	=317	=317
0A	0c	2f	0cc
.	.	1g	.
.	.	2f#i	.
=318	=318	=318	=318
1.G	2.d	1g	1b-y
.	4c	.	.
.	2B-y	[1d	2g
2F	2A	.	[2a
=319	=319	=319	=319
1G	2.B-y	0d_	4a]
.	.	.	4g
.	.	.	1g
.	4G	.	.
1D	1A	.	.
.	.	.	2f#i
=320	=320	=320	=320
[0G	0BnX	0d_	1g
.	.	.	1r
=321	=321	=321	=321
0G]	0r	1d]	1g
.	.	2.d	[1b-y
.	.	4c	.
=322	=322	=322	=322
0r	1d	2B-y	2b-]
.	.	4A	2b-y
.	.	4G	.
.	[1f	1d	2.a
.	.	.	4b-y
=323	=323	=323	=323
1r	2f]	0r	2cc
.	2f	.	1dd
1A	1e	.	.
.	.	.	2cc#i
=324	=324	=324	=324
1.B-y	2g	1d	1dd
.	2f	.	.
.	1d	[1f	1r
2B-y	.	.	.
=325	=325	=325	=325
0A	0c	2f]	1a
.	.	2f	.
.	.	1e	1a
=326	=326	=326	=326
0r	0G	1.d	0b-y
.	.	2e	.
=327	=327	=327	=327
1r	1d	2.f	1a
.	.	4g	.
[1F	2c	[1a	[1cc
.	[2f	.	.
=328	=328	=328	=328
2F]	4f]	2a]	2cc]
.	4e	.	.
2G	2d	4g	2b-y
.	.	4f	.
1A	[1c	1e	[1a
=329	=329	=329	=329
1F	1c]	2.f	1a]
.	.	4e	.
1G	1B-y	4d	2g
.	.	4c	.
.	.	2d	2b-y
=330	=330	=330	=330
1.B-y	2.d	2.G	2b-y
.	.	.	4a
.	4c	4A	4g
.	4d	2B-y	1f
.	4e	.	.
2A	[2f	[2c	.
=331	=331	=331	=331
1G	2f]	2c]	1g
.	2e	2Bni	.
[1F	1f	1c	[1a
=332	=332	=332	=332
0F_	1r	2d	1a]
.	.	2c	.
.	1c	[1A	1r
=333	=333	=333	=333
1F]	1c	1A]	1f
1D	1d	1r	1f
=334	=334	=334	=334
1C	1e	1c	1g
1F	[1f	1c	[1a
=335	=335	=335	=335
0r	2f]	1d	2a]
.	1d	.	2f
.	.	[1f	2a
.	4c	.	2b-y
.	4B-y	.	.
=336	=336	=336	=336
0r	1A	2f]	0cc
.	.	2c	.
.	1F	2f	.
.	.	2g	.
=337	=337	=337	=337
1r	1F	1a	1cc
1C	1G	2.g	[1cc
.	.	4f	.
=338	=338	=338	=338
1C	1.A	4e	2cc]
.	.	4d	.
.	.	2e	2cc
1D	.	1d	[1f
.	2F	.	.
=339	=339	=339	=339
1.F	2.A	1c	1f]
.	4B-y	.	.
.	4c	2r	1r
.	4d	.	.
2C	[2e	2g	.
=340	=340	=340	=340
2F	4e]	2f	1r
.	4d	.	.
2G	1d	4e	.
.	.	4d	.
1A	.	2f	[1a
.	2c#i	2e	.
=341	=341	=341	=341
0D	1d	0f	1a]
.	1r	.	[1a
=342	=342	=342	=342
0r	1f	1d	2a]
.	.	.	2a
.	[1f	1r	1cc
=343	=343	=343	=343
0r	2f]	0r	1cc
.	2e	.	.
.	1d	.	[1dd
=344	=344	=344	=344
0r	1g	0r	2dd]
.	.	.	2ee
.	2f	.	1ff
.	2d	.	.
=345	=345	=345	=345
0r	2e	1r	2ee
.	2f	.	2.dd
.	2.d	2r	.
.	.	.	4cc
.	.	2d	2a
.	4c	.	.
=346	=346	=346	=346
1r	4B-y	1.d	1b-y
.	4A	.	.
.	2B-y	.	.
1B-y	1G	.	1b-y
.	.	2e	.
=347	=347	=347	=347
1.B-y	1.d	1f	1r
.	.	1f	2r
2A	2c	.	2a
=348	=348	=348	=348
1G	1d	1.g	1b-y
1c	1e	.	1cc
.	.	2a	.
=349	=349	=349	=349
2B-y	2f	1b-y	1dd
2G	2g	.	.
2A	2e	2a	2cc
2B-y	[2d	[2g	[2b-y
=350	=350	=350	=350
0G	2d]	4g]	2b-]
.	.	4f	.
.	2.B-y	2e	2g
.	.	2d	2b-y
.	4c	.	.
.	4d	2B-y	2b-y
.	4e	.	.
=351	=351	=351	=351
1F	1f	2c	1a
.	.	2.d	.
1C	2e	.	[1g
.	.	4c	.
.	4d	[2c	.
.	4c	.	.
=352	=352	=352	=352
1G	1d	2c]	1g]
.	.	2B-y	.
[1C	1c	2A	2.e
.	.	2G	.
.	.	.	4f
=353	=353	=353	=353
1C]	1e	1c	2g
.	.	.	1a
1r	1d	1B-y	.
.	.	.	2g
=354	=354	=354	=354
1.F	1r	1A	1a
.	[1f	1r	1r
2G	.	.	.
=355	=355	=355	=355
1A	2f]	0r	0r
.	2e	.	.
1B-y	1d	.	.
=356	=356	=356	=356
1r	1c	1.A	1r
[1F	1r	.	[1a
.	.	2B-y	.
=357	=357	=357	=357
2F]	1.A	1c	2a]
2E	.	.	2g
1D	.	1d	1f
.	2B-y	.	.
=358	=358	=358	=358
1C	1c	2G	1e
.	.	1g	.
1r	1d	.	[1a
.	.	4f	.
.	.	4e	.
=359	=359	=359	=359
0r	1.d	1f	2a]
.	.	.	2a
.	.	1B-y	1b-y
.	2d	.	.
=360	=360	=360	=360
0r	1e	1c	1g
.	2.c	1A	[1cc
.	4d	.	.
=361	=361	=361	=361
0r	2e	2r	2cc]
.	2f	1a	4b-y
.	.	.	4a
.	1g	.	1b-y
.	.	2g	.
=362	=362	=362	=362
1.A	0c	2f	0a
.	.	2e	.
.	.	1f	.
2A	.	.	.
=363	=363	=363	=363
1B-y	1f	1d	1.dd
1G	1r	1g	.
.	.	.	2dd
=364	=364	=364	=364
1.c	1g	2.e	1ee
.	.	4f	.
.	2e	2g	1cc
4B-y	[2f	[2a	.
4A	.	.	.
=365	=365	=365	=365
1B-y	2f]	2a]	1dd
.	2d	2g	.
[1Al	1f	[1al	[1ccl
=	=	=	=
00A]	00e	00a]	00cc]
=||	=||	=||	=||
*M2/1	*M2/1	*M2/1	*M2/1
*met(C|)	*met(C|)	*met(C|)	*met(C|)
!!section: Pars VII: O Domine Jesu Christe
!!!OMD: Pars VII: O Domine Jesu Christe
0r	0r	0r	0g
=366	=366	=366	=366
0r	0r	0d	0dd
=367	=367	=367	=367
0r	0r	1g	1.dd
.	.	1f	.
.	.	.	2cc
=368	=368	=368	=368
0r	0r	0d	1dd
.	.	.	[1ff
=369	=369	=369	=369
0r	0r	1f	2ff]
.	.	.	2ee
.	.	1f	[1dd
=370	=370	=370	=370
0r	0A	0e	2dd]
.	.	.	4cc#i
.	.	.	4bni
.	.	.	1cc#i
=371	=371	=371	=371
0D	0d	2.d	2dd
.	.	.	2.ff
.	.	8cL	.
.	.	8B-yJ	.
.	.	1A	.
.	.	.	4ee
.	.	.	[2dd
=372	=372	=372	=372
1G	1.d	1B-y	2dd]
.	.	.	4cc
.	.	.	4b-y
1F	.	1r	[1a
.	2c	.	.
=373	=373	=373	=373
0D	1d	0r	0a_
.	[1f	.	.
=374	=374	=374	=374
1F	2f]	0r	1a]
.	2e	.	.
1F	[1d	.	1r
=375	=375	=375	=375
0E	2d]	1.g	0r
.	4c#i	.	.
.	4Bni	.	.
.	1c#i	.	.
.	.	2e	.
=376	=376	=376	=376
0D	1d	1f	1.a
.	1r	1d	.
.	.	.	2f
=377	=377	=377	=377
0r	1.c	1r	1g
.	.	2r	2e
.	2A	[2f	[2a
=378	=378	=378	=378
1r	1B-y	2f]	2a]
.	.	2d	2g
[1c	1A	2.e	1a
.	.	4f	.
=379	=379	=379	=379
2c]	2r	2g	0r
2A	1f	1a	.
1B-y	.	.	.
.	2d	[2g	.
=380	=380	=380	=380
0A	1e	2g]	1.cc
.	.	4f#i	.
.	.	4e	.
.	1c	1f#i	.
.	.	.	2a
=381	=381	=381	=381
1G	2.d	2g	1b-y
.	.	2G	.
.	8cL	.	.
.	8B-yJ	.	.
2.F	2d	1A	[1a
.	[2c	.	.
4E	.	.	.
=382	=382	=382	=382
1D	2c]	1F	2a]
.	2B-y	.	4g
.	.	.	4f
[1C	2G	[1c	[1e
.	[2g	.	.
=383	=383	=383	=383
1C]	4g]	1c]	1e]
.	4f	.	.
.	4e	.	.
.	4d	.	.
1r	2e-i	2c	[1g
.	4d	2B-y	.
.	4c	.	.
=384	=384	=384	=384
1G	1B-y	1e-i	1g]
2G	1r	[1d	2r
2F	.	.	2a
=385	=385	=385	=385
2.B-y	1r	1d]	2g
.	.	.	2f
4A	.	.	.
1G	1d	1B-y	1b-y
=386	=386	=386	=386
0F	2d	2.f	0a
.	2c	.	.
.	.	4e	.
.	2.f	2d	.
.	.	2c	.
.	4e	.	.
=387	=387	=387	=387
1G	1d	2.B-y	1r
.	.	4A	.
2A	1c	2F	2r
2F	.	2c	2a
=388	=388	=388	=388
2.B-y	0r	2d	2g
.	.	1f	2f
4A	.	.	.
1G	.	.	1b-y
.	.	2e	.
=389	=389	=389	=389
1.F	0f	2c	0a
.	.	2d	.
.	.	2.A	.
4E	.	.	.
4D	.	4B-y	.
=390	=390	=390	=390
1C	1e	1c	1r
1r	1g	2.G	[1b-y
.	.	4A	.
=391	=391	=391	=391
0r	2d	4B-y	2b-]
.	.	4c	.
.	2f	2d	2a
.	2f	1A	[1cc
.	4e	.	.
.	4d	.	.
=392	=392	=392	=392
1r	2e	0r	1cc]
.	2e	.	.
[1G	[1d	.	2dd
.	.	.	2b-y
=393	=393	=393	=393
1G]	2d]	0r	2b-y
.	4c	.	4a
.	4B-y	.	4g
1F	1c	.	2a
.	.	.	2a
=394	=394	=394	=394
1G	1r	1.B-y	1g
2D	[1f	.	1r
2F	.	2A	.
=395	=395	=395	=395
2F	2f]	0c	0r
4E	2f	.	.
4D	.	.	.
2E	1g	.	.
2E	.	.	.
=396	=396	=396	=396
1D	1f	1.d	1a
[1G	2B-y	.	2g
.	2d	2B-y	[2b-y
=397	=397	=397	=397
1G]	2e-i	2.B-y	4b-]
.	.	.	4a
.	2.d	.	1g
.	.	8AL	.
.	.	8GJ	.
1D	.	2A	.
.	4c	.	.
.	2d	2A	2f#i
=398	=398	=398	=398
1G	2.B-y	2.G	[0g
.	4c	4A	.
1r	2d	4B-y	.
.	.	4c	.
.	2B-y	[2d	.
=399	=399	=399	=399
1C	1e-i	4d]	0g_
.	.	4c	.
.	.	2c	.
[1G	1d	2.B-y	.
.	.	4c	.
=400	=400	=400	=400
2G]	0B-y	2d	0g]
2G	.	2e-i	.
1G	.	1d	.
=401	=401	=401	=401
1B-y	1G	2r	0r
.	.	2d	.
[1B-y	[1d	[1f	.
=402	=402	=402	=402
2B-]	2d]	2f]	0r
2A	2d	2f	.
2G	1d	[1g	.
2F	.	.	.
=403	=403	=403	=403
1E	1c	1g]	1g
1D	[1f	1a	[1dd
=404	=404	=404	=404
1.B-y	2f]	1.b-y	2dd]
.	2e	.	2dd
.	2.d	.	[1dd
2F	.	2a	.
.	4c	.	.
=405	=405	=405	=405
2G	4B-y	2g	1dd]
.	4c	.	.
2D	2d	2f	.
1r	1A	1e	1cc
=406	=406	=406	=406
1r	1B-y	1d	1.ff
[1B-y	2r	[1b-y	.
.	[2f	.	2ee
=407	=407	=407	=407
2B-]	2f]	2b-]	2dd
2F	2f	2a	2cc
1G	[1d	1g	1b-y
=408	=408	=408	=408
1D	1d]	0f	0a
1r	1d	.	.
=409	=409	=409	=409
1.B-y	1.d	1.f	1.b-y
2F	2c	2f	2a
=410	=410	=410	=410
1G	1B-y	1d	1g
[1C	[1G	[1c	[1e
=411	=411	=411	=411
1C]	1G]	0c]	1e]
2F	1A	.	1r
2A	.	.	.
=412	=412	=412	=412
1G	1B-y	2r	0g
.	.	2d	.
1C	2c	2e	.
.	2e-i	[2g	.
=413	=413	=413	=413
0r	1d	2g]	1a
.	.	2f	.
.	1G	2d	[1b-y
.	.	2e-i	.
=414	=414	=414	=414
0G	2r	2d	2b-]
.	2d	2.B-y	2g
.	2e	.	1g
.	.	4c	.
.	[2g	4d	.
.	.	4B-y	.
=415	=415	=415	=415
1A	2g]	1c	1cc
.	2f	.	.
[1B-y	2.d	1G	2.b-y
.	4e	.	4cc
=416	=416	=416	=416
2B-]	2f	2r	4dd
.	.	.	4ee-i
2G	2.g	2d	1dd
1G	.	2e	.
.	4f	.	.
.	4e	[2g	4cc
.	4d	.	4b-y
=417	=417	=417	=417
1A	1c	2g]	1cc
.	.	2f	.
1G	[1g	1d	[1b-y
=418	=418	=418	=418
1.G	2g]	1e	1b-]
.	2G	.	.
.	2.B-y	1d	1g
4F	.	.	.
4E	4c	.	.
=419	=419	=419	=419
0D	0d	0f	1.a
.	.	.	2b-y
=420	=420	=420	=420
1C	1G	1e	1cc
[1D	2r	1d	[1a
.	[2f	.	.
=421	=421	=421	=421
2D]	2f]	2r	2a]
2E	2e	2G	2g
2.F	1c	2.A	1f
4G	.	4B-y	.
=422	=422	=422	=422
4A	1r	1c	1e
4B-y	.	.	.
2.c	.	.	.
.	1c	1F	2r
4B-y	.	.	.
2A	.	.	2f
=423	=423	=423	=423
2G	1.d	1r	2g
2F	.	.	2a
1G	.	1B-y	1b-y
.	2e	.	.
=424	=424	=424	=424
1F	1f	2c	1.a
.	.	2d	.
1G	[1d	1B-y	.
.	.	.	2g
=425	=425	=425	=425
2D	2d]	1A	2f
2F	2c	.	1a
1G	1B-y	[1dl	.
.	.	.	[2g
=426	=426	=426	=426
0D	0A	0d_	2g]
.	.	.	4f#i
.	.	.	4e
.	.	.	1f#i
=427	=427	=427	=427
00Gl	00Gl	00d]	00gl
==	==	==	==
*-	*-	*-	*-
!!!system-decoration: [*]
!!!RDF**kern: i = editorial accidental
!!!RDF**kern: l = terminal long
!!!ENC: Benjamin Ory
!!!END: 2021/7/29
!!!EED: Benjamin Ory
!!!EEV: 2021/07/29
!!!YEC: Copyright 2021 Benjamin Ory, All Rights Reserved
!!!ONB: Translated from MusicXML on 2021/07/29
